Newaita-dark/apps/32/com.github.plugarut.pwned-checker.svg

<svg height="32" viewBox="0 0 32 32" width="32" xmlns="http://www.w3.org/2000/svg" xmlns:xlink="http://www.w3.org/1999/xlink"><linearGradient id="a"><stop offset="0" stop-opacity=".313726"/><stop offset=".222222" stop-opacity=".27451"/><stop offset="1" stop-opacity="0"/></linearGradient><radialGradient id="b" cx="450.908936" cy="189.579361" gradientTransform="matrix(.00000017 -.0781325 -.140638 -.0000001 48.823041 63.59533)" gradientUnits="userSpaceOnUse" r="21.166656" xlink:href="#a"/><radialGradient id="c" cx="450.908936" cy="189.579361" gradientTransform="matrix(-.00000017 .0781325 .140638 .0000001 -17.070006 -7.527481)" gradientUnits="userSpaceOnUse" r="21.166656" xlink:href="#a"/><radialGradient id="d" cx="450.908936" cy="189.579361" gradientTransform="matrix(-.00000017 -.0781325 .140638 -.0000001 -17.070006 63.59533)" gradientUnits="userSpaceOnUse" r="21.166656" xlink:href="#a"/><radialGradient id="e" cx="450.908936" cy="189.579361" gradientTransform="matrix(.00000017 .0781325 -.140638 .0000001 48.823039 -7.527481)" gradientUnits="userSpaceOnUse" r="21.166656" xlink:href="#a"/><linearGradient id="f" gradientTransform="matrix(.267201 0 0 .0499487 -52.345996 16.636709)" gradientUnits="userSpaceOnUse" x1="255.322968" x2="255.323044" y1="228.178589" y2="254.666656"><stop offset="0" stop-opacity=".27451"/><stop offset="1" stop-opacity="0"/></linearGradient><linearGradient id="g" gradientUnits="userSpaceOnUse" x1="15.876524" x2="15.876524" y1="28.033934" y2="14.803497375"><stop offset="0" stop-color="#546e7a"/><stop offset="1" stop-color="#607d8b"/></linearGradient><linearGradient id="h" gradientUnits="userSpaceOnUse" x1="15.87648" x2="15.87648" y1="28.03386419623" y2="2.89610343548"><stop offset="0" stop-color="#bdbdbd"/><stop offset="1" stop-color="#eee"/></linearGradient><linearGradient id="i" gradientUnits="userSpaceOnUse" x1="15.876524" x2="15.876524" y1="28.033934" y2="2.89610500006"><stop offset="0" stop-color="#9ccc65"/><stop offset="1" stop-color="#aed581"/></linearGradient><path d="m22.492188 28.035156h2.644531v-1.324218h-2.644531zm0 0" fill="url(#b)"/><path d="m9.261719 28.035156h-2.648438v1.320313h2.648438zm0 0" fill="url(#c)"/><path d="m9.261719 28.035156h-2.648438v-1.324218h2.648438zm0 0" fill="url(#d)"/><path d="m22.492188 28.035156h2.644531v1.320313h-2.644531zm0 0" fill="url(#e)"/><path d="m9.261719 28.035156h13.230469v1.320313h-13.230469zm0 0" fill="url(#f)"/><path d="m7.9375 14.804688h15.878906c.730469 0 1.320313.589843 1.320313 1.320312v10.585938c0 .730468-.589844 1.324218-1.320313 1.324218h-15.878906c-.730469 0-1.324219-.59375-1.324219-1.324218v-10.585938c0-.730469.59375-1.320312 1.324219-1.320312zm0 0" fill="url(#g)"/><path d="m15.875 2.894531c-4.03125 0-7.273438 3.246094-7.273438 7.277344v4.632813h1.984376v-4.632813c0-2.929687 2.359374-5.292969 5.289062-5.292969 2.933594 0 5.292969 2.363282 5.292969 5.292969v4.632813h1.984375v-4.632813c0-4.03125-3.246094-7.277344-7.277344-7.277344zm0 0" fill="url(#h)"/><path d="m15.875 2.894531c-4.03125 0-7.273438 3.246094-7.273438 7.277344v4.632813h1.984376v-4.632813c0-2.929687 2.359374-5.292969 5.289062-5.292969 2.933594 0 5.292969 2.363282 5.292969 5.292969v4.632813h1.984375v-4.632813c0-4.03125-3.246094-7.277344-7.277344-7.277344zm0 0" fill="#cfcfcf"/><path d="m15.875 2.894531c-4.03125 0-7.273438 3.246094-7.273438 7.277344v.332031c0-4.03125 3.242188-7.277344 7.273438-7.277344s7.277344 3.246094 7.277344 7.277344v-.332031c0-4.03125-3.246094-7.277344-7.277344-7.277344zm0 0" fill="#fff" fill-opacity=".784314"/><path d="m15.875 4.550781c-2.929688 0-5.289062 2.359375-5.289062 5.292969v.328125c0-2.929687 2.359374-5.292969 5.289062-5.292969 2.933594 0 5.292969 2.363282 5.292969 5.292969v-.328125c0-2.933594-2.359375-5.292969-5.292969-5.292969zm-7.273438 9.921875v.332032h1.984376v-.332032zm12.566407 0v.332032h1.984375v-.332032zm0 0" fill-opacity=".235294"/><path d="m959.908384 175.022665c-243.756263 0-439.800544 196.28048-439.800544 440.036742v280.130744h119.988548v-280.130744c0-177.148446 142.663549-320.048194 319.811996-320.048194 177.384645 0 320.048194 142.899748 320.048194 320.048194v280.130744h119.988548v-280.130744c0-243.756262-196.280479-440.036742-440.036742-440.036742zm0 0" fill="none" stroke="#212121" stroke-linecap="round" stroke-linejoin="round" stroke-width="11.338583" transform="scale(.016538)"/><path d="m7.9375 28.035156c-.730469 0-1.324219-.589844-1.324219-1.324218v-.660157c0 .730469.59375 1.320313 1.324219 1.320313h15.878906c.730469 0 1.320313-.589844 1.320313-1.320313v.660157c0 .734374-.589844 1.324218-1.320313 1.324218zm0 0" fill-opacity=".235294"/><path d="m7.9375 14.804688c-.730469 0-1.324219.589843-1.324219 1.320312v.664062c0-.734374.59375-1.324218 1.324219-1.324218h15.878906c.730469 0 1.320313.589844 1.320313 1.324218v-.664062c0-.730469-.589844-1.320312-1.320313-1.320312zm0 0" fill="#fff" fill-opacity=".392157"/><path d="m7.9375 14.710938c-.78125 0-1.414062.632812-1.414062 1.414062v10.585938c0 .785156.632812 1.417968 1.414062 1.417968h15.878906c.78125 0 1.414063-.632812 1.414063-1.417968v-10.585938c0-.78125-.632813-1.414062-1.414063-1.414062zm0 .1875h15.878906c.679688 0 1.226563.546874 1.226563 1.226562v10.585938c0 .683593-.546875 1.230468-1.226563 1.230468h-15.878906c-.683594 0-1.226562-.546875-1.226562-1.230468v-10.585938c0-.679688.542968-1.226562 1.226562-1.226562zm0 0" fill="#212121"/><path d="m25.210938 10.164062c-.433594-.019531-.851563.175782-1.113282.523438l-8.390625 10.789062-5.566406-5.003906c-.347656-.324218-.84375-.433594-1.292969-.289062-.453125.144531-.792968.523437-.886718.988281-.097657.464844.0625.945313.417968 1.257813l6.617188 5.953124c.269531.242188.632812.363282.996094.332032.363281-.03125.699218-.214844.921874-.503906l9.261719-11.90625c.3125-.386719.378907-.914063.171875-1.367188-.203125-.449219-.644531-.75-1.136718-.773438zm0 0" fill="url(#i)"/><path d="m25.210938 10.164062c-.433594-.019531-.851563.175782-1.113282.523438l-8.390625 10.789062-5.566406-5.003906c-.417969-.386718-1.035156-.460937-1.535156-.183594-.496094.277344-.757813.84375-.648438 1.402344.089844-.46875.429688-.851562.882813-1 .453125-.148437.953125-.039062 1.300781.28125l5.566406 5.007813 8.390625-10.789063c.261719-.347656.679688-.542968 1.113282-.523437.605468.03125 1.113281.46875 1.230468 1.066406.074219-.375-.019531-.765625-.257812-1.066406-.234375-.300781-.589844-.484375-.972656-.503907zm0 0" fill="#fff" fill-opacity=".392157"/><path d="m24.195312 14.859375-7.28125 9.359375c-.222656.289062-.558593.472656-.921874.503906-.363282.03125-.726563-.089844-.996094-.332031l-6.617188-5.953125c-.160156-.144531-.285156-.324219-.359375-.527344-.195312.511719-.050781 1.089844.359375 1.453125l6.617188 5.953125c.269531.242188.632812.363282.996094.332032.363281-.03125.699218-.214844.921874-.503907l7.785157-10.003906c-.144531-.128906-.316407-.226563-.503907-.28125zm0 0" fill-opacity=".235294"/><path d="m403.336483-52.390528c-6.936837-.312471-13.623699 2.812231-17.810799 8.3742l-134.237181 172.608517-89.053996-80.054856c-5.561968-5.187004-13.498711-6.936837-20.685524-4.624558-7.249308 2.312279-12.686289 8.3742-14.186146 15.81099-1.56235 7.43679.999905 15.123556 6.686862 20.123079l105.86489 95.240904c4.312089 3.87463 10.124034 5.811945 15.935978 5.311993 5.811945-.499952 11.186432-3.437172 14.748592-8.06173l148.17335-190.48181c4.999523-6.186909 6.061921-14.623603 2.749738-21.872911-3.24969-7.186814-10.311516-11.998854-18.185764-12.373818zm0 0" fill="none" stroke="#212121" stroke-linecap="round" stroke-linejoin="round" stroke-width="3" transform="matrix(.062506 0 0 .062506 0 13.438783)"/></svg>

<?xml version="1.0" encoding="UTF-8"?>
<svg xmlns="http://www.w3.org/2000/svg" xmlns:xlink="http://www.w3.org/1999/xlink" width="32px" height="32px" viewBox="0 0 32 32" version="1.1">
<defs>
<radialGradient id="radial0" gradientUnits="userSpaceOnUse" cx="450.908936" cy="189.579361" fx="450.908936" fy="189.579361" r="21.166656" gradientTransform="matrix(0.00000017417,-0.0781325,-0.140638,-0.000000101539,48.823041,63.59533)">
<stop offset="0" style="stop-color:rgb(0%,0%,0%);stop-opacity:0.313726;"/>
<stop offset="0.222222" style="stop-color:rgb(0%,0%,0%);stop-opacity:0.27451;"/>
<stop offset="1" style="stop-color:rgb(0%,0%,0%);stop-opacity:0;"/>
</radialGradient>
<radialGradient id="radial1" gradientUnits="userSpaceOnUse" cx="450.908936" cy="189.579361" fx="450.908936" fy="189.579361" r="21.166656" gradientTransform="matrix(-0.00000017417,0.0781325,0.140638,0.000000101539,-17.070006,-7.527481)">
<stop offset="0" style="stop-color:rgb(0%,0%,0%);stop-opacity:0.313726;"/>
<stop offset="0.222222" style="stop-color:rgb(0%,0%,0%);stop-opacity:0.27451;"/>
<stop offset="1" style="stop-color:rgb(0%,0%,0%);stop-opacity:0;"/>
</radialGradient>
<radialGradient id="radial2" gradientUnits="userSpaceOnUse" cx="450.908936" cy="189.579361" fx="450.908936" fy="189.579361" r="21.166656" gradientTransform="matrix(-0.00000017417,-0.0781325,0.140638,-0.000000101539,-17.070006,63.59533)">
<stop offset="0" style="stop-color:rgb(0%,0%,0%);stop-opacity:0.313726;"/>
<stop offset="0.222222" style="stop-color:rgb(0%,0%,0%);stop-opacity:0.27451;"/>
<stop offset="1" style="stop-color:rgb(0%,0%,0%);stop-opacity:0;"/>
</radialGradient>
<radialGradient id="radial3" gradientUnits="userSpaceOnUse" cx="450.908936" cy="189.579361" fx="450.908936" fy="189.579361" r="21.166656" gradientTransform="matrix(0.00000017417,0.0781325,-0.140638,0.000000101539,48.823039,-7.527481)">
<stop offset="0" style="stop-color:rgb(0%,0%,0%);stop-opacity:0.313726;"/>
<stop offset="0.222222" style="stop-color:rgb(0%,0%,0%);stop-opacity:0.27451;"/>
<stop offset="1" style="stop-color:rgb(0%,0%,0%);stop-opacity:0;"/>
</radialGradient>
<linearGradient id="linear0" gradientUnits="userSpaceOnUse" x1="255.322968" y1="228.178589" x2="255.323044" y2="254.666656" gradientTransform="matrix(0.267201,0,0,0.0499487,-52.345996,16.636709)">
<stop offset="0" style="stop-color:rgb(0%,0%,0%);stop-opacity:0.27451;"/>
<stop offset="1" style="stop-color:rgb(0%,0%,0%);stop-opacity:0;"/>
</linearGradient>
<linearGradient id="linear1" gradientUnits="userSpaceOnUse" x1="254" y1="233.5" x2="254" y2="21.833334" gradientTransform="matrix(0.062506,0,0,0.062506,0,13.438783)">
<stop offset="0" style="stop-color:rgb(32.941177%,43.137255%,47.843137%);stop-opacity:1;"/>
<stop offset="1" style="stop-color:rgb(37.64706%,49.019608%,54.509807%);stop-opacity:1;"/>
</linearGradient>
<linearGradient id="linear2" gradientUnits="userSpaceOnUse" x1="960" y1="1695.118164" x2="960" y2="175.118118" gradientTransform="matrix(0.016538,0,0,0.016538,0,0)">
<stop offset="0" style="stop-color:rgb(74.117649%,74.117649%,74.117649%);stop-opacity:1;"/>
<stop offset="1" style="stop-color:rgb(93.333334%,93.333334%,93.333334%);stop-opacity:1;"/>
</linearGradient>
<linearGradient id="linear3" gradientUnits="userSpaceOnUse" x1="254" y1="233.5" x2="254" y2="-168.666656" gradientTransform="matrix(0.062506,0,0,0.062506,0,13.438783)">
<stop offset="0" style="stop-color:rgb(61.176473%,80.000001%,39.607844%);stop-opacity:1;"/>
<stop offset="1" style="stop-color:rgb(68.235296%,83.529413%,50.588238%);stop-opacity:1;"/>
</linearGradient>
</defs>
<g id="surface1">
<path style=" stroke:none;fill-rule:nonzero;fill:url(#radial0);" d="M 22.492188 28.035156 L 25.136719 28.035156 L 25.136719 26.710938 L 22.492188 26.710938 Z M 22.492188 28.035156 "/>
<path style=" stroke:none;fill-rule:nonzero;fill:url(#radial1);" d="M 9.261719 28.035156 L 6.613281 28.035156 L 6.613281 29.355469 L 9.261719 29.355469 Z M 9.261719 28.035156 "/>
<path style=" stroke:none;fill-rule:nonzero;fill:url(#radial2);" d="M 9.261719 28.035156 L 6.613281 28.035156 L 6.613281 26.710938 L 9.261719 26.710938 Z M 9.261719 28.035156 "/>
<path style=" stroke:none;fill-rule:nonzero;fill:url(#radial3);" d="M 22.492188 28.035156 L 25.136719 28.035156 L 25.136719 29.355469 L 22.492188 29.355469 Z M 22.492188 28.035156 "/>
<path style=" stroke:none;fill-rule:nonzero;fill:url(#linear0);" d="M 9.261719 28.035156 L 22.492188 28.035156 L 22.492188 29.355469 L 9.261719 29.355469 Z M 9.261719 28.035156 "/>
<path style=" stroke:none;fill-rule:nonzero;fill:url(#linear1);" d="M 7.9375 14.804688 L 23.816406 14.804688 C 24.546875 14.804688 25.136719 15.394531 25.136719 16.125 L 25.136719 26.710938 C 25.136719 27.441406 24.546875 28.035156 23.816406 28.035156 L 7.9375 28.035156 C 7.207031 28.035156 6.613281 27.441406 6.613281 26.710938 L 6.613281 16.125 C 6.613281 15.394531 7.207031 14.804688 7.9375 14.804688 Z M 7.9375 14.804688 "/>
<path style=" stroke:none;fill-rule:nonzero;fill:url(#linear2);" d="M 15.875 2.894531 C 11.84375 2.894531 8.601562 6.140625 8.601562 10.171875 L 8.601562 14.804688 L 10.585938 14.804688 L 10.585938 10.171875 C 10.585938 7.242188 12.945312 4.878906 15.875 4.878906 C 18.808594 4.878906 21.167969 7.242188 21.167969 10.171875 L 21.167969 14.804688 L 23.152344 14.804688 L 23.152344 10.171875 C 23.152344 6.140625 19.90625 2.894531 15.875 2.894531 Z M 15.875 2.894531 "/>
<path style=" stroke:none;fill-rule:nonzero;fill:rgb(81.176472%,81.176472%,81.176472%);fill-opacity:1;" d="M 15.875 2.894531 C 11.84375 2.894531 8.601562 6.140625 8.601562 10.171875 L 8.601562 14.804688 L 10.585938 14.804688 L 10.585938 10.171875 C 10.585938 7.242188 12.945312 4.878906 15.875 4.878906 C 18.808594 4.878906 21.167969 7.242188 21.167969 10.171875 L 21.167969 14.804688 L 23.152344 14.804688 L 23.152344 10.171875 C 23.152344 6.140625 19.90625 2.894531 15.875 2.894531 Z M 15.875 2.894531 "/>
<path style=" stroke:none;fill-rule:nonzero;fill:rgb(100%,100%,100%);fill-opacity:0.784314;" d="M 15.875 2.894531 C 11.84375 2.894531 8.601562 6.140625 8.601562 10.171875 L 8.601562 10.503906 C 8.601562 6.472656 11.84375 3.226562 15.875 3.226562 C 19.90625 3.226562 23.152344 6.472656 23.152344 10.503906 L 23.152344 10.171875 C 23.152344 6.140625 19.90625 2.894531 15.875 2.894531 Z M 15.875 2.894531 "/>
<path style=" stroke:none;fill-rule:nonzero;fill:rgb(0%,0%,0%);fill-opacity:0.235294;" d="M 15.875 4.550781 C 12.945312 4.550781 10.585938 6.910156 10.585938 9.84375 L 10.585938 10.171875 C 10.585938 7.242188 12.945312 4.878906 15.875 4.878906 C 18.808594 4.878906 21.167969 7.242188 21.167969 10.171875 L 21.167969 9.84375 C 21.167969 6.910156 18.808594 4.550781 15.875 4.550781 Z M 8.601562 14.472656 L 8.601562 14.804688 L 10.585938 14.804688 L 10.585938 14.472656 Z M 21.167969 14.472656 L 21.167969 14.804688 L 23.152344 14.804688 L 23.152344 14.472656 Z M 21.167969 14.472656 "/>
<path style="fill:none;stroke-width:11.338583;stroke-linecap:round;stroke-linejoin:round;stroke:rgb(12.941177%,12.941177%,12.941177%);stroke-opacity:1;stroke-miterlimit:4;" d="M 959.908384 175.022665 C 716.152121 175.022665 520.10784 371.303145 520.10784 615.059407 L 520.10784 895.190151 L 640.096388 895.190151 L 640.096388 615.059407 C 640.096388 437.910961 782.759937 295.011213 959.908384 295.011213 C 1137.293029 295.011213 1279.956578 437.910961 1279.956578 615.059407 L 1279.956578 895.190151 L 1399.945126 895.190151 L 1399.945126 615.059407 C 1399.945126 371.303145 1203.664647 175.022665 959.908384 175.022665 Z M 959.908384 175.022665 " transform="matrix(0.016538,0,0,0.016538,0,0)"/>
<path style=" stroke:none;fill-rule:nonzero;fill:rgb(0%,0%,0%);fill-opacity:0.235294;" d="M 7.9375 28.035156 C 7.207031 28.035156 6.613281 27.445312 6.613281 26.710938 L 6.613281 26.050781 C 6.613281 26.78125 7.207031 27.371094 7.9375 27.371094 L 23.816406 27.371094 C 24.546875 27.371094 25.136719 26.78125 25.136719 26.050781 L 25.136719 26.710938 C 25.136719 27.445312 24.546875 28.035156 23.816406 28.035156 Z M 7.9375 28.035156 "/>
<path style=" stroke:none;fill-rule:nonzero;fill:rgb(100%,100%,100%);fill-opacity:0.392157;" d="M 7.9375 14.804688 C 7.207031 14.804688 6.613281 15.394531 6.613281 16.125 L 6.613281 16.789062 C 6.613281 16.054688 7.207031 15.464844 7.9375 15.464844 L 23.816406 15.464844 C 24.546875 15.464844 25.136719 16.054688 25.136719 16.789062 L 25.136719 16.125 C 25.136719 15.394531 24.546875 14.804688 23.816406 14.804688 Z M 7.9375 14.804688 "/>
<path style=" stroke:none;fill-rule:nonzero;fill:rgb(12.941177%,12.941177%,12.941177%);fill-opacity:1;" d="M 7.9375 14.710938 C 7.15625 14.710938 6.523438 15.34375 6.523438 16.125 L 6.523438 26.710938 C 6.523438 27.496094 7.15625 28.128906 7.9375 28.128906 L 23.816406 28.128906 C 24.597656 28.128906 25.230469 27.496094 25.230469 26.710938 L 25.230469 16.125 C 25.230469 15.34375 24.597656 14.710938 23.816406 14.710938 Z M 7.9375 14.898438 L 23.816406 14.898438 C 24.496094 14.898438 25.042969 15.445312 25.042969 16.125 L 25.042969 26.710938 C 25.042969 27.394531 24.496094 27.941406 23.816406 27.941406 L 7.9375 27.941406 C 7.253906 27.941406 6.710938 27.394531 6.710938 26.710938 L 6.710938 16.125 C 6.710938 15.445312 7.253906 14.898438 7.9375 14.898438 Z M 7.9375 14.898438 "/>
<path style=" stroke:none;fill-rule:nonzero;fill:url(#linear3);" d="M 25.210938 10.164062 C 24.777344 10.144531 24.359375 10.339844 24.097656 10.6875 L 15.707031 21.476562 L 10.140625 16.472656 C 9.792969 16.148438 9.296875 16.039062 8.847656 16.183594 C 8.394531 16.328125 8.054688 16.707031 7.960938 17.171875 C 7.863281 17.636719 8.023438 18.117188 8.378906 18.429688 L 14.996094 24.382812 C 15.265625 24.625 15.628906 24.746094 15.992188 24.714844 C 16.355469 24.683594 16.691406 24.5 16.914062 24.210938 L 26.175781 12.304688 C 26.488281 11.917969 26.554688 11.390625 26.347656 10.9375 C 26.144531 10.488281 25.703125 10.1875 25.210938 10.164062 Z M 25.210938 10.164062 "/>
<path style=" stroke:none;fill-rule:nonzero;fill:rgb(100%,100%,100%);fill-opacity:0.392157;" d="M 25.210938 10.164062 C 24.777344 10.144531 24.359375 10.339844 24.097656 10.6875 L 15.707031 21.476562 L 10.140625 16.472656 C 9.722656 16.085938 9.105469 16.011719 8.605469 16.289062 C 8.109375 16.566406 7.847656 17.132812 7.957031 17.691406 C 8.046875 17.222656 8.386719 16.839844 8.839844 16.691406 C 9.292969 16.542969 9.792969 16.652344 10.140625 16.972656 L 15.707031 21.980469 L 24.097656 11.191406 C 24.359375 10.84375 24.777344 10.648438 25.210938 10.667969 C 25.816406 10.699219 26.324219 11.136719 26.441406 11.734375 C 26.515625 11.359375 26.421875 10.96875 26.183594 10.667969 C 25.949219 10.367188 25.59375 10.183594 25.210938 10.164062 Z M 25.210938 10.164062 "/>
<path style=" stroke:none;fill-rule:nonzero;fill:rgb(0%,0%,0%);fill-opacity:0.235294;" d="M 24.195312 14.859375 L 16.914062 24.21875 C 16.691406 24.507812 16.355469 24.691406 15.992188 24.722656 C 15.628906 24.753906 15.265625 24.632812 14.996094 24.390625 L 8.378906 18.4375 C 8.21875 18.292969 8.09375 18.113281 8.019531 17.910156 C 7.824219 18.421875 7.96875 19 8.378906 19.363281 L 14.996094 25.316406 C 15.265625 25.558594 15.628906 25.679688 15.992188 25.648438 C 16.355469 25.617188 16.691406 25.433594 16.914062 25.144531 L 24.699219 15.140625 C 24.554688 15.011719 24.382812 14.914062 24.195312 14.859375 Z M 24.195312 14.859375 "/>
<path style="fill:none;stroke-width:3;stroke-linecap:round;stroke-linejoin:round;stroke:rgb(12.941177%,12.941177%,12.941177%);stroke-opacity:1;stroke-miterlimit:4;" d="M 403.336483 -52.390528 C 396.399646 -52.702999 389.712784 -49.578297 385.525684 -44.016328 L 251.288503 128.592189 L 162.234507 48.537333 C 156.672539 43.350329 148.735796 41.600496 141.548983 43.912775 C 134.299675 46.225054 128.862694 52.286975 127.362837 59.723765 C 125.800487 67.160555 128.362742 74.847321 134.049699 79.846844 L 239.914589 175.087748 C 244.226678 178.962378 250.038623 180.899693 255.850567 180.399741 C 261.662512 179.899789 267.036999 176.962569 270.599159 172.338011 L 418.772509 -18.143799 C 423.772032 -24.330708 424.83443 -32.767402 421.522247 -40.01671 C 418.272557 -47.203524 411.210731 -52.015564 403.336483 -52.390528 Z M 403.336483 -52.390528 " transform="matrix(0.062506,0,0,0.062506,0,13.438783)"/>
</g>
</svg>
